X: 39617
T: Tempest, The
R: reel
M: 4/4
K: Cmajor
|:d2 cA GE E2|DEcE dEcE|d2 cA GE E2|DEAE GEDE|
d2 cA GE E2|DEcE dEcE|DEFA GEcE|EDcG ED D2:|
|:d2 ed cAGA|Addc AGEG|d2 ed cdef|edce d3 z|
efdf edcA|dcAG AGEG|DEFA GEcE|EDcG ED D2:|

